!!!COM: Corelli, Arcangelo
!!!OTL: 
!!!ONM: Opus 6, No. 3
!!!OMV: 4
!!!CDT: 1653/2/17/-1713/1/8/
!!!OCY: Italia
**kern	**kern	**kern	**kern	**kern	**kern	**kern
*clefC	*clefG	*clefG	*clefG	*clefC	*clefG	*clefG
*k[b-e-]	*k[b-e-]	*k[b-e-]	*k[b-e-]	*k[b-e-]	*k[b-e-]	*k[b-e-]
*g:	*g:	*g:	*g:	*g:	*g:	*g:
*M4/4	*M4/4	*M4/4	*M4/4	*M4/4	*M4/4	*M4/4
=1	=1	=1	=1	=1	=1	=1
8C	4.g	4.cc	4.ee-	8C	4.cc	4.ee-
8D	.	.	.	8D	.	.
8E-	.	.	.	8E-	.	.
8F	8g	8cc	8ee-	8F	8cc	8ee-
8G	2g	2b	2dd	8G	2b	2dd
8A	.	.	.	8A	.	.
8B	.	.	.	8B	.	.
8G	.	.	.	8G	.	.
=2	=2	=2	=2	=2	=2	=2
1r	1r	1r	1r	8C	4.ee-	4.cc
.	.	.	.	8D	.	.
.	.	.	.	8E-	.	.
.	.	.	.	8F	8ee-	8cc
.	.	.	.	8G	2dd	2b
.	.	.	.	8A	.	.
.	.	.	.	8B	.	.
.	.	.	.	8G	.	.
=3	=3	=3	=3	=3	=3	=3
8E-	4.b-	4.ee-	4.gg	8E-	4.ee-	4.gg
8F	.	.	.	8F	.	.
8G	.	.	.	8G	.	.
8A	8b-	8ee-	8gg	8A	8ee-	8gg
8B-	2b-	2dd	2ff	8B-	2dd	2ff
8c	.	.	.	8c	.	.
8d	.	.	.	8d	.	.
8B-	.	.	.	8B-	.	.
=4	=4	=4	=4	=4	=4	=4
1r	1r	1r	1r	8E-	4.gg	4.ee-
.	.	.	.	8F	.	.
.	.	.	.	8G	.	.
.	.	.	.	8A	8gg	8ee-
.	.	.	.	8B-	2ff	2dd
.	.	.	.	8c	.	.
.	.	.	.	8d	.	.
.	.	.	.	8B-	.	.
=5	=5	=5	=5	=5	=5	=5
8E-	4.e-	4.gg	4.bb-	8E-	4.gg	4.bb-
8F	.	.	.	8F	.	.
8G	.	.	.	8G	.	.
8E-	8g	8gg	8bb-	8E-	8gg	8bb-
8F	4c	4gg	2aa-	8F	4gg	2aa-
8E-	.	.	.	8E-	.	.
8D	4f	[4ff	.	8D	[4ff	.
8BB-	.	.	.	8BB-	.	.
=6	=6	=6	=6	=6	=6	=6
8E-	4.B-	4ff]	2gg	8E-	4ff]	2gg
8F	.	.	.	8F	.	.
8G	.	2ee-	.	8G	2ee-	.
8E-	8b-	.	.	8E-	.	.
8A-	8cc	.	2ff	8A-	.	4ff
8F	8a-	.	.	8F	.	.
8B-	4b-	4dd	.	8B-	4dd	4b-
8BB-	.	.	.	8BB-	.	.
=7	=7	=7	=7	=7	=7	=7
4E-	4g	4ee-	4ee-	8E-	4.gg	4.bb-
.	.	.	.	8F	.	.
2.r	2.r	2.r	2.r	8G	.	.
.	.	.	.	8E-	8gg	8bb-
.	.	.	.	8F	4gg	2aa-
.	.	.	.	8E-	.	.
.	.	.	.	8D	[4ff	.
.	.	.	.	8BB-	.	.
=8	=8	=8	=8	=8	=8	=8
1r	1r	1r	1r	8E-	4ff]	2gg
.	.	.	.	8F	.	.
.	.	.	.	8G	2ee-	.
.	.	.	.	8E-	.	.
.	.	.	.	8A-	.	2ff
.	.	.	.	8F	.	.
.	.	.	.	8B-	4dd	.
.	.	.	.	8BB-	.	.
=9	=9	=9	=9	=9	=9	=9
8E-	4.b-	4.ee-	4.gg	8E-	4.ee-	4.gg
8F	.	.	.	8F	.	.
8G	.	.	.	8G	.	.
8A	8b-	8ee-	8gg	8A	8ee-	8gg
8B-	2b-	2dd	2ff	8B-	2dd	2ff
8c	.	.	.	8c	.	.
8d	.	.	.	8d	.	.
8B-	.	.	.	8B-	.	.
=10	=10	=10	=10	=10	=10	=10
1r	1r	1r	1r	8C	4.cc	4.ee-
.	.	.	.	8D	.	.
.	.	.	.	8E-	.	.
.	.	.	.	8F	8cc	8ee-
.	.	.	.	8G	2b	2dd
.	.	.	.	8A	.	.
.	.	.	.	8B	.	.
.	.	.	.	8G	.	.
=11	=11	=11	=11	=11	=11	=11
8GG	4.dd	4.gg	4.bb-	8GG	4.gg	4.bb-
8AA	.	.	.	8AA	.	.
8BB-	.	.	.	8BB-	.	.
8C	8dd	8gg	8bb-	8C	8gg	8bb-
8D	2dd	2ff#	2aa	8D	2ff#	2aa
8E	.	.	.	8E	.	.
8F#	.	.	.	8F#	.	.
8D	.	.	.	8D	.	.
=12	=12	=12	=12	=12	=12	=12
1r	1r	1r	1r	8G	4.bb-	4.gg
.	.	.	.	8A	.	.
.	.	.	.	8B-	.	.
.	.	.	.	8c	8bb-	8gg
.	.	.	.	8d	2aa	2ff#
.	.	.	.	8e	.	.
.	.	.	.	8f#	.	.
.	.	.	.	8d	.	.
=13	=13	=13	=13	=13	=13	=13
8B-	4.g	4.gg	4.ddd	8B-	4.gg	4.ddd
8c	.	.	.	8c	.	.
8d	.	.	.	8d	.	.
8B-	8g	8bb-	8ddd	8B-	8bb-	8ddd
8c	4.g	8ee	4ccc	8c	8ee	4ccc
8d	.	8ff#	.	8d	8ff#	.
8e-	.	[4gg	4bb-	8e-	[4gg	4bb-
8B-	8d	.	.	8B-	.	.
=14	=14	=14	=14	=14	=14	=14
8c	8e-	4gg]	2aa	8c	4gg]	2aa
8A	8c	.	.	8A	.	.
8d	4d	4ff#	.	8d	4ff#	.
8D	.	.	.	8c	.	.
2G	2d	2gg	2gg	8B-	2gg	2gg
.	.	.	.	8A	.	.
.	.	.	.	8G	.	.
.	.	.	.	8A	.	.
=15	=15	=15	=15	=15	=15	=15
1r	1r	1r	1r	8B-	4.gg	4.ddd
.	.	.	.	8c	.	.
.	.	.	.	8d	.	.
.	.	.	.	8B-	8bb-	8ddd
.	.	.	.	8c	8ee	4ccc
.	.	.	.	8d	8ff#	.
.	.	.	.	8e-	[4gg	4bb-
.	.	.	.	8B-	.	.
=16	=16	=16	=16	=16	=16	=16
1r	1r	1r	1r	8c	4gg]	2aa
.	.	.	.	8A	.	.
.	.	.	.	8d	4ff#	.
.	.	.	.	8D	.	.
.	.	.	.	2G	2gg	2gg
=17	=17	=17	=17	=17	=17	=17
8G	4g	4b	4dd	8G	2r	4dd
8A	.	.	.	8A	.	.
8B	4g	4dd	4gg	8B	.	4gg
8G	.	.	.	8G	.	.
8c	2g	2g	2ee-	8c	4g	2ee-
8C	.	.	.	8C	.	.
8E-	.	.	.	8E-	4cc	.
8C	.	.	.	8C	.	.
=18	=18	=18	=18	=18	=18	=18
1r	1r	1r	1r	8F	2a	4cc
.	.	.	.	8G	.	.
.	.	.	.	8A	.	4ff
.	.	.	.	8F	.	.
.	.	.	.	8B-	4f	2dd
.	.	.	.	8BB-	.	.
.	.	.	.	8D	4b-	.
.	.	.	.	8BB-	.	.
=19	=19	=19	=19	=19	=19	=19
8E-	4e-	4g	4b-	8E-	2g	4b-
8F	.	.	.	8F	.	.
8G	4e-	4b-	4ee-	8G	.	4ee-
8E-	.	.	.	8E-	.	.
8A-	2e-	2e-	2cc	8A-	4e-	2cc
8B-	.	.	.	8B-	.	.
8c	.	.	.	8c	4a-	.
8A-	.	.	.	8A-	.	.
=20	=20	=20	=20	=20	=20	=20
2r	2r	2r	2r	8D	4f	4.b-
.	.	.	.	8BB-	.	.
.	.	.	.	8C	4ff	.
.	.	.	.	8D	.	8a-
4E-	4.g	4b-	4g	8E-	4b-	8g
.	.	.	.	8EE-	.	8e-
8r	.	4r	[4cc	8r	4r	[4cc
8e-	8e-	.	.	8e-	.	.
=21	=21	=21	=21	=21	=21	=21
8d	8f	2f	4cc]	8d	2f	4cc]
8c	8e-	.	.	8c	.	.
8d	8f	.	2b-	8d	.	2b-
8B-	8d	.	.	8B-	.	.
8c	8e-	2e-	.	8c	2e-	.
8B-	8d	.	.	8B-	.	.
8c	8e-	.	[4a-	8c	.	[4a-
8A-	8c	.	.	8A-	.	.
=22	=22	=22	=22	=22	=22	=22
8B-	4f	4.d	4a-]	8B-	4.d	4a-]
8A-	.	.	.	8A-	.	.
8B-	8r	.	4g	8B-	.	4g
8G	8g	8b-	.	8G	8b-	.
8A-	4e-	4a-	8c	8A-	4a-	8c
8B-	.	.	8d	8B-	.	8d
8c	8r	4g	[4e-	8c	4g	[4e-
8G	8B-	.	.	8G	.	.
=23	=23	=23	=23	=23	=23	=23
8A-	8c	4.f	4e-]	8A-	4.f	4e-]
8F	8A-	.	.	8F	.	.
8B-	4B-	.	4d	8B-	.	4d
8BB-	.	8b-	.	8BB-	8b-	.
4E-	4B-	4g	4e-	4E-	4g	4e-
4r	4r	4r	4r	8r	8r	8r
.	.	.	.	8e-	8b-	8gg
=24	=24	=24	=24	=24	=24	=24
1r	1r	1r	1r	4e-	4b-	4gg
.	.	.	.	4d-	2bb-	4ff
.	.	.	.	4c	.	4ee
.	.	.	.	4B-	4aa-	[4ff
=25	=25	=25	=25	=25	=25	=25
2r	2r	2r	2r	4c	2gg	4ff]
.	.	.	.	4C	.	4ee
8F	4.cc	4.aa-	4.ff	8F	4.aa-	4.ff
8G	.	.	.	8G	.	.
8A-	.	.	.	8A-	.	.
8B-	8cc	8aa-	8ff	8B-	8aa-	8ff
=26	=26	=26	=26	=26	=26	=26
8c	2cc	2gg	2ee	8c	2gg	2ee
8C	.	.	.	8C	.	.
8E	.	.	.	8E	.	.
8C	.	.	.	8C	.	.
2r	2r	2r	2r	8F	4.ff	4.aa-
.	.	.	.	8G	.	.
.	.	.	.	8A-	.	.
.	.	.	.	8B-	8ff	8aa-
=27	=27	=27	=27	=27	=27	=27
2r	2r	2r	2r	8c	2ee	2gg
.	.	.	.	8C	.	.
.	.	.	.	8E	.	.
.	.	.	.	8C	.	.
8F	4.f	4.aa-	4.ff	8F	4.aa-	4.ff
8G	.	.	.	8G	.	.
8A-	.	.	.	8A-	.	.
8F	8f	8gg	8ee-	8F	8gg	8ee-
=28	=28	=28	=28	=28	=28	=28
8B-	2f	2ff	2dd	8B-	2ff	2dd
8BB-	.	.	.	8BB-	.	.
8D	.	.	.	8D	.	.
8BB-	.	.	.	8BB-	.	.
2r	2r	2r	2r	8E-	4.ee-	4.gg
.	.	.	.	8F	.	.
.	.	.	.	8G	.	.
.	.	.	.	8E-	8ee-	8gg
=29	=29	=29	=29	=29	=29	=29
2r	2r	2r	2r	8B-	2dd	2ff
.	.	.	.	8BB-	.	.
.	.	.	.	8D	.	.
.	.	.	.	8BB-	.	.
8E-	4.b-	4.gg	4.ee-	8E-	4.gg	4.ee-
8F	.	.	.	8F	.	.
8G	.	.	.	8G	.	.
8E-	8b-	8ff	8dd	8E-	8ff	8dd
=30	=30	=30	=30	=30	=30	=30
8A-	4.cc	4.ee-	4.cc	8A-	4.ee-	4.cc
8B-	.	.	.	8B-	.	.
8A-	.	.	.	8A-	.	.
8G	8cc	8ee-	8cc	8G	8ee-	8cc
4.F	4.a-	8ff	8dd	4.F	8ff	8dd
.	.	8gg	8ee-	.	8gg	8ee-
.	.	8ff	8dd	.	8ff	8dd
8F	8a-	8ee-	8cc	8F	8ee-	8cc
=31	=31	=31	=31	=31	=31	=31
2G	2d	2dd	2b	8G	4dd	4b
.	.	.	.	8A-	.	.
.	.	.	.	8G	4r	4r
.	.	.	.	8F	.	.
2r	2r	2r	2r	8E-	2ee-	2gg
.	.	.	.	8F	.	.
.	.	.	.	8G	.	.
.	.	.	.	8E-	.	.
=32	=32	=32	=32	=32	=32	=32
4A-	4c	4cc	4ee-	8A-	2cc	2ee-
.	.	.	.	8B-	.	.
4AA-	4e-	4A-	4c	8c	.	.
.	.	.	.	8A-	.	.
2r	2r	2r	2r	8F	2ff	2aa-
.	.	.	.	8G	.	.
.	.	.	.	8A-	.	.
.	.	.	.	8F	.	.
=33	=33	=33	=33	=33	=33	=33
4B-	4d	4dd	4ff	8B-	2dd	2ff
.	.	.	.	8c	.	.
4BB-	4f	4B-	4d	8d	.	.
.	.	.	.	8B-	.	.
2r	2r	2r	2r	8G	2gg	2bb-
.	.	.	.	8A-	.	.
.	.	.	.	8B-	.	.
.	.	.	.	8G	.	.
=34	=34	=34	=34	=34	=34	=34
4c	4e-	4ee-	4gg	8c	2ee-	2gg
.	.	.	.	8d	.	.
4C	4g	4c	4e-	8e-	.	.
.	.	.	.	8c	.	.
2r	2r	2r	2r	8A-	2aa-	2ccc
.	.	.	.	8G	.	.
.	.	.	.	8F	.	.
.	.	.	.	8A-	.	.
=35	=35	=35	=35	=35	=35	=35
8G	4.g	4b	4dd	8G	4b	4dd
8F	.	.	.	8F	.	.
8E-	.	2cc	4ee-	8E-	2cc	4ee-
8C	8g	.	.	8C	.	.
8F	8a-	.	2dd	8F	.	2dd
8D	8f	.	.	8D	.	.
8G	4g	4b	.	8G	4b	.
8GG	.	.	.	8F	.	.
=36	=36	=36	=36	=36	=36	=36
2C	2g	2cc	2cc	8E-	4cc	4cc
.	.	.	.	8D	.	.
.	.	.	.	8C	4r	4r
.	.	.	.	8D	.	.
2r	2r	2r	2r	8E-	2ee-	2gg
.	.	.	.	8F	.	.
.	.	.	.	8G	.	.
.	.	.	.	8E-	.	.
=37	=37	=37	=37	=37	=37	=37
4A-	4c	4cc	4ee-	8A-	2cc	2ee-
.	.	.	.	8B-	.	.
4AA-	4e-	4A-	4c	8c	.	.
.	.	.	.	8A-	.	.
2r	2r	2r	2r	8F	2ff	2aa-
.	.	.	.	8G	.	.
.	.	.	.	8A-	.	.
.	.	.	.	8F	.	.
=38	=38	=38	=38	=38	=38	=38
4B-	4d	4dd	4ff	8B-	2dd	2ff
.	.	.	.	8c	.	.
4BB-	4f	4B-	4d	8d	.	.
.	.	.	.	8B-	.	.
2r	2r	2r	2r	8G	2gg	2bb-
.	.	.	.	8A-	.	.
.	.	.	.	8B-	.	.
.	.	.	.	8G	.	.
=39	=39	=39	=39	=39	=39	=39
4c	4e-	4ee-	4gg	8c	2ee-	2gg
.	.	.	.	8d	.	.
4C	4g	4c	4e-	8e-	.	.
.	.	.	.	8c	.	.
2r	2r	2r	2r	8A-	2aa-	2ccc
.	.	.	.	8G	.	.
.	.	.	.	8F	.	.
.	.	.	.	8A-	.	.
=40	=40	=40	=40	=40	=40	=40
8G	4.g	4b	4dd	8G	4b	4dd
8F	.	.	.	8F	.	.
8E-	.	2cc	4ee-	8E-	2cc	4ee-
8C	8g	.	.	8C	.	.
8F	8a-	.	2dd	8F	.	2dd
8D	8f	.	.	8D	.	.
8G	4g	4b	.	8G	4b	.
8GG	.	.	.	8GG	.	.
=41	=41	=41	=41	=41	=41	=41
4C	4g	4cc	4cc	4C	4cc	4cc
8r	8r	2f	4a-	8r	2f	4a-
8F	8a-	.	.	8F	.	.
4G	4d	.	4B	4G	.	4B
4C	8e-	4e-	[4c	4C	4e-	[4c
.	8f	.	.	.	.	.
=42	=42	=42	=42	=42	=42	=42
4G	2g	2d	4c]	4G	2d	4c]
4GG	.	.	4B	4GG	.	4B
2C	2g	2c	2c	2C	2c	2c
==	==	==	==	==	==	==
*-	*-	*-	*-	*-	*-	*-
!!!RWG: This file only contains pitch and duration data.
!!!RWG: Transposing instruments are not transposed.
!!!RWG: Durations of rests and tied notes may be interpreted.
!!!RWG: Key is interpreted using the Humdrum key tool.
!!!SCA: 
!!!YOR: Chrysander Edition
!!!AGN: concerto grosso
!!!AFT: stage1
!!!ENC: F. Bennion
!!!END: 1997/04/15
!!!AST: baroque
!!!YEC: Copyright 1994, Center for Computer Assisted Research in the Humanities
!!!YEM: Rights to all derivative electronic formats reserved.
!!!YEM: Refer to licensing agreement for further details.
!!!YEN: United States of America
!!!EED: W.B. Hewlett
!!!KEY: 1540127296
!!!EMD: Converted from MuseData to Humdrum Aug 9, 1999, by Bret Aarden using muse2kern.
!!!VTS: 2957488352
